dist/svg/static/fuel-range-small.svg

<svg xmlns="http://www.w3.org/2000/svg" width="24" height="24" viewBox="0 0 24 24"><g fill="none" stroke="currentColor" stroke-miterlimit="10"><path d="M7 21.5H1M23.498 21.5H9.502M9.5 19v5-5zM23.5 19v5-5z"/><g><path d="M13.5 19V3.5a1 1 0 0 0-1-1h-9a1 1 0 0 0-1 1v18M15 10.5h1.5c.512 0 1 .488 1 1v5c0 .55.45 1 1 1h2c.55 0 1-.45 1-1v-10l-4-4"/><path d="M8 6s-3.5 5.3-3.5 7.5c.048 2.189 1.311 3.952 3.5 4 2.189-.048 3.452-1.811 3.5-4C11.5 11.3 8 6 8 6z"/></g></g></svg>

<?xml version="1.0" encoding="UTF-8" standalone="no"?>
<svg width="24px" height="24px" viewBox="0 0 24 24" version="1.1" xmlns="http://www.w3.org/2000/svg" xmlns:xlink="http://www.w3.org/1999/xlink">
    <!-- Generator: sketchtool 46.2 (44496) - http://www.bohemiancoding.com/sketch -->
    <title>fuel-range-small</title>
    <desc>Created with sketchtool.</desc>
    <defs></defs>
    <g id="icons-published" stroke="none" stroke-width="1" fill="none" fill-rule="evenodd">
        <g id="briefing" transform="translate(-356.000000, -666.000000)"></g>
        <g id="fuel-range-small" stroke="#000000">
            <path d="M7,21.5 L1,21.5 L7,21.5 Z M23.5,21.5 L9.5,21.5 L23.5,21.5 Z M9.5,19 L9.5,24 L9.5,19 Z M23.5,19 L23.5,24 L23.5,19 Z" id="Shape"></path>
            <path d="M13.5,19 L13.5,3.5 C13.5,2.9 13.1,2.5 12.5,2.5 L3.5,2.5 C2.9,2.5 2.5,2.9 2.5,3.5 L2.5,21.5 M15,10.5 L16.5,10.5 C17,10.5 17.5,11 17.5,11.5 L17.5,16.5 C17.5,17 18,17.5 18.5,17.5 L20.5,17.5 C21,17.5 21.5,17 21.5,16.5 L21.5,6.5 L17.5,2.5" id="Shape"></path>
            <path d="M8,6 C8,6 4.5,11.3 4.5,13.5 C4.5,15.7 5.8,17.5 8,17.5 C10.2,17.5 11.5,15.7 11.5,13.5 C11.5,11.3 8,6 8,6 Z" id="Shape"></path>
        </g>
    </g>
</svg>
